packages/core/src/svgs/wait.svg

<svg width="24" height="24" viewBox="0 0 24 24" fill="none" xmlns="http://www.w3.org/2000/svg">
<g clip-path="url(#clip0_31_20583)">
<path d="M0 0H24V24H0V0Z" fill="#F0F3FA"/>
<path fill-rule="evenodd" clip-rule="evenodd" d="M11.1429 5.57129H4.71436V5.99986H4.97578C5.39578 5.99986 5.5715 6.44986 5.5715 6.87415V10.6927C5.5715 11.7299 5.05721 12.0041 4.71436 12.0127C5.5715 12.1156 5.58864 12.8827 5.5715 13.2556V17.0484C5.5715 17.477 5.39578 17.9999 4.97578 17.9999H4.71436V18.4284H11.1429V17.9999H11.0058C10.4829 17.9999 10.0629 17.387 10.0629 16.8556V15.7156C10.0629 14.5156 11.3529 12.7499 12.0001 12.0127C10.3501 10.0241 10.0201 8.73415 10.0586 8.33557V7.067C10.0586 6.53557 10.4872 5.99986 11.0058 5.99986H11.1429V5.57129ZM7.28578 9.707V6.42843C7.28578 6.31477 7.24063 6.20576 7.16026 6.12539C7.07989 6.04501 6.97088 5.99986 6.85721 5.99986C6.74355 5.99986 6.63454 6.04501 6.55417 6.12539C6.47379 6.20576 6.42864 6.31477 6.42864 6.42843V10.5856C6.42864 11.597 6.90864 12.0127 7.24293 12.0127C6.42864 12.1113 6.41578 13.2684 6.42864 13.6499V17.5713C6.42864 17.685 6.47379 17.794 6.55417 17.8743C6.63454 17.9547 6.74355 17.9999 6.85721 17.9999C6.97088 17.9999 7.07989 17.9547 7.16026 17.8743C7.24063 17.794 7.28578 17.685 7.28578 17.5713V14.3999C7.28396 13.8722 7.44868 13.3574 7.75648 12.9288C8.06428 12.5002 8.49947 12.1796 9.00007 12.0127C8.53443 11.8165 8.12985 11.4992 7.82837 11.0937C7.5269 10.6882 7.33954 10.2094 7.28578 9.707ZM12.8572 5.57129H19.2858V5.99986H19.0244C18.6001 5.99986 18.4286 6.44986 18.4286 6.87415V10.6927C18.4286 11.7299 18.9429 12.0041 19.2858 12.0127C18.4286 12.1156 18.4115 12.8827 18.4286 13.2556V17.0484C18.4286 17.477 18.6044 17.9999 19.0244 17.9999H19.2858V18.4284H12.8572V17.9999H12.9944C13.5172 17.9999 13.9372 17.387 13.9372 16.8556V15.7156C13.9372 14.5156 12.6472 12.7499 12.0001 12.0127C13.6501 10.0241 13.9801 8.73415 13.9415 8.33557V7.067C13.9415 6.53557 13.5129 5.99986 12.9944 5.99986H12.8572V5.57129ZM16.7144 9.707V6.42843C16.7144 6.31477 16.7595 6.20576 16.8399 6.12539C16.9203 6.04501 17.0293 5.99986 17.1429 5.99986C17.2566 5.99986 17.3656 6.04501 17.446 6.12539C17.5263 6.20576 17.5715 6.31477 17.5715 6.42843V10.5856C17.5715 11.597 17.0915 12.0127 16.7572 12.0127C17.5715 12.1113 17.5844 13.2684 17.5715 13.6499V17.5713C17.5715 17.685 17.5263 17.794 17.446 17.8743C17.3656 17.9547 17.2566 17.9999 17.1429 17.9999C17.0293 17.9999 16.9203 17.9547 16.8399 17.8743C16.7595 17.794 16.7144 17.685 16.7144 17.5713V14.3999C16.7162 13.8722 16.5515 13.3574 16.2437 12.9288C15.9359 12.5002 15.5007 12.1796 15.0001 12.0127C15.4657 11.8165 15.8703 11.4992 16.1718 11.0937C16.4732 10.6882 16.6606 10.2094 16.7144 9.707Z" fill="black"/>
</g>
<defs>
<clipPath id="clip0_31_20583">
<rect width="24" height="24" fill="white"/>
</clipPath>
</defs>
</svg>

<svg xmlns="http://www.w3.org/2000/svg" width="24" height="24" fill="none" viewBox="0 0 24 24"><g clip-path="url(#a)"><path fill="#F0F3FA" d="M0 0h24v24H0z"/><path fill="#000" fill-rule="evenodd" d="M11.143 5.571H4.714V6h.262c.42 0 .596.45.596.874v3.819c0 1.037-.515 1.311-.858 1.32.857.103.875.87.857 1.243v3.792c0 .429-.175.952-.595.952h-.262v.428h6.429V18h-.137c-.523 0-.943-.613-.943-1.144v-1.14c0-1.2 1.29-2.966 1.937-3.703-1.65-1.989-1.98-3.279-1.941-3.677V7.067c0-.531.428-1.067.947-1.067h.137zM7.286 9.707V6.428a.429.429 0 1 0-.857 0v4.158c0 1.011.48 1.427.814 1.427-.814.098-.827 1.255-.814 1.637v3.921a.428.428 0 1 0 .857 0V14.4A2.51 2.51 0 0 1 9 12.013a2.83 2.83 0 0 1-1.714-2.306m5.571-4.136h6.429V6h-.262c-.424 0-.595.45-.595.874v3.819c0 1.037.514 1.311.857 1.32-.857.103-.875.87-.857 1.243v3.792c0 .429.175.952.595.952h.262v.428h-6.429V18h.137c.523 0 .943-.613.943-1.144v-1.14c0-1.2-1.29-2.966-1.937-3.703 1.65-1.989 1.98-3.279 1.941-3.677V7.067c0-.531-.428-1.067-.947-1.067h-.137zm3.857 4.136V6.428a.428.428 0 1 1 .858 0v4.158c0 1.011-.48 1.427-.815 1.427.814.098.827 1.255.814 1.637v3.921a.429.429 0 0 1-.857 0V14.4A2.51 2.51 0 0 0 15 12.013a2.83 2.83 0 0 0 1.714-2.306" clip-rule="evenodd"/></g><defs><clipPath id="a"><path fill="#fff" d="M0 0h24v24H0z"/></clipPath></defs></svg>
